!!!OTL: Die verwundete (verwuenschte) Dame.
!!!OTL-incipit: ES WOLLT EIN JAEGER FRUEH AUFSTEHN
!!!COM: Ges. v. H. Langer
!!!ARE: Europa, Mitteleuropa, Deutschland, Uckermark
!!!SCT: F0830
!!!TXL: @@DE
!!!YEM: Copyright 1995, estate of Helmut Schaffrath.
**kern	**text
*ICvox	*
*M3/4	*
*k[b-]	*
*F:	*
!LO:TX:a:t=Langsam.	!
!LO:TX:a:t=Aus der Ukermark.	!
{8c	1._Es
8f	wollt
8a	ein
=1	=1
4cc/	Jä-
4ff/	-ger
16dd/L	früh
16ccJ	.
8b-/	auf-
=2	=2
4a	-ſtehn
8r}	.
{8cc	und
8cc	in
8cc	den
=3	=3
(8cc/	grü-
16b-/	.
16a/	-nen
8b-/	Wald,
16gL	und
16aJ	.
8b-/	in
8b-/	den
=4	=4
(8b-/	grü-
16a)	.
16g	-nen
8a}	Wald
{8a	ſpa-
16cc/L	-ʒie-
16b-J	.
8g	-ren
=5	=5
4f	gehn.
8r}	.
{8cc	und
8cc	in
8cc	den
=6	=6
(8cc/	grü-
16b-/)	.
16a	-nen
8b-/	Wald,
16gL	und
16aJ	.
8b-/	in
8b-/	den
=7	=7
(8b-/	grü-
16a)	.
16g	-nen
8a}	Wald
{8a	ſpa-
16cc/L	-ʒie-
16b-J	.
8g	-ren
=8	=8
4f	gehn.
8r}	.
==	==
!!!AGN: erzaehlendes Volks - Lied, Ballade, verwundete Dame
!!!ONB: ESAC (Essen Associative Code) Database: FINK
!!!AMT: simple triple
!!!AIN: vox
!!!EED: Helmut Schaffrath
!!!EEV: 1.0
!!!GTL: Romanzen und Balladen.
!!Text: Volkslied
!!!source: Musikalischer Hausschatz der Deutschen. Eine Sammlung von über 1000 Liedern und Gesängen mit Singstimmen und Klavierbegleitung. Leipzig, Litterarisches Verlags-Haus.
!!!page: 583
!!!ENC: Anna Maria Matuszewska
!!!EEV: 2025/03/19
*-	*-
